X: 0
T: Syndalspolska
S: handwritten MS of unknown origin, labelled "uppt. Hans [illegible]" at upper right
Z: 2007 John Chambers <jc@trillian.mit.edu>
M: 3/4
L: 1/8
K: D
V: 1
|: ((3dcd f)>(A d)>(f | {g}a)>b af d>f | ((3fef g)(e c)>(e | a)>b af d>A |
|  ((3dcd f)>(A d)>(f | {g}a)>b af d>f | (3{g}fef ge c>e |1 c>d d2 [A2-D2-] :|2 cd [d4D4] |]
|: (3DFA d2 d>e | (3dcB c2 c>d | (3cBA B2 B>c | B>A [A2-A2-] [A2A2] |
|  F>D G2 G>A | G>F F2 F>G | (3FEF GE C>E | {C}D2 D2- D2 :|
V: 2
|: ((3AFA d)>(F A)>(d | {e}f)>g fd A>d | ((3dcd e)(c A)>(c | f)>g fd A>F |
|  ((3AFA d)>(F A)>(d | {e}f)>g fd A>d | (3{e}dcd ec A>G |1 E>G [F2A,2] [F2-D2-] :|2 E>A, [D4D4] |]
|: (3FAd f2 f>g | fe {^d}e2 e>f | (3edc d2 d>e | d>d F2- F2 |
|  A>F B2 B.c | B>A A2 A>B | (3A^GA BA E>C | {A,}DF [D2-D2] [D2D2] :|
